X: 1432
T: An Ugly Customer
R: reel
M: 4/4
K: Gmajor
G2 Bd dGBd|dGBd cAAD|G2 Bd dGBd|ecAc BGGF|
G2 Bd dGBd|dGBd cA A2|G2 Bd dGBd|ecAc BG G2|
g2 gd e2 eg|d2 Bd cA A2|g2 gd e2 eg|dBAc BG G2|
g2 gd e2 eg|d2 Bd cA A2|GABc defa|gedc BG G2|

